svg/color/cspr.svg

<svg width="64" height="65" viewBox="0 0 64 65" fill="none" xmlns="http://www.w3.org/2000/svg">
<rect y="0.303711" width="64" height="64" rx="32" fill="white"/>
<rect x="0.5" y="0.803711" width="63" height="63" rx="31.5" stroke="#070B14" stroke-opacity="0.15"/>
<path d="M48.8433 44.936C47.7451 44.936 46.8132 45.7014 46.5803 46.7664L37.8443 46.3504C37.8775 46.184 37.8942 46.0176 37.8942 45.8512C37.8942 45.5517 37.8443 45.2522 37.7611 44.9526L40.9393 43.1222C41.7214 44.0873 43.1358 44.287 44.1508 43.5549C45.1659 42.8227 45.4321 41.4249 44.7499 40.3766C44.0676 39.3283 42.6865 38.9955 41.6049 39.6112C40.5233 40.2269 40.1073 41.5913 40.6731 42.7062L37.5947 44.4867C36.8625 42.9392 35.0487 42.2403 33.4679 42.8893C31.8871 43.5382 31.0884 45.3187 31.6542 46.9328L25.93 48.3139C25.8967 47.5318 25.5639 46.7997 25.0148 46.2339L26.0465 44.8029C27.2113 45.2022 28.4926 44.6198 28.9585 43.4717C29.4244 42.3235 28.9086 41.0089 27.7937 40.4931C26.6788 39.9606 25.331 40.4099 24.7486 41.4915C24.1662 42.5731 24.5322 43.9376 25.5806 44.5866L24.6321 45.9011C23.9665 45.4019 23.1178 45.1856 22.2858 45.2854L21.3041 39.6777C22.5354 39.4115 23.4839 38.4464 23.7502 37.2317C24.0164 36.0003 23.5505 34.7357 22.5521 33.9869C21.5537 33.2214 20.2058 33.1216 19.1076 33.704L16.6282 28.8617C17.1607 28.5955 17.5933 28.1795 17.9095 27.6803L19.9729 28.2294C19.9562 28.3459 19.9396 28.4457 19.9396 28.5622C19.9396 29.7603 20.8548 30.7753 22.0529 30.8918C23.2509 31.0083 24.3492 30.1929 24.5655 28.9949C24.7818 27.7968 24.0663 26.6486 22.9015 26.3325C21.7367 25.9997 20.522 26.6153 20.0893 27.7469L18.1425 27.231C18.4087 26.5987 18.4586 25.8998 18.2922 25.2342L24.033 22.5884C25.098 23.9197 27.0282 24.2025 28.426 23.2041C29.8238 22.2057 30.1898 20.2921 29.258 18.8611L32.9188 15.2835C33.3681 15.5664 33.8839 15.7494 34.3998 15.7827V17.3635C33.185 17.4966 32.2698 18.5616 32.3364 19.7929C32.403 21.0243 33.418 21.9894 34.6494 21.9894C35.8807 21.9894 36.8958 21.0243 36.9623 19.7929C37.0289 18.5616 36.1303 17.4966 34.899 17.3635V15.7827C35.3649 15.7494 35.7975 15.6163 36.1969 15.4L40.2071 19.976C39.2753 21.2073 39.3419 22.9212 40.3569 24.0694C41.3886 25.2176 43.0859 25.4838 44.4171 24.6851C45.7483 23.8864 46.314 22.2723 45.7982 20.8246L47.0462 20.1257C47.8449 21.0576 49.226 21.224 50.2078 20.4752C51.1896 19.743 51.4225 18.3619 50.7403 17.3468C50.058 16.3318 48.6936 16.0156 47.6452 16.648C46.5969 17.2803 46.2142 18.6115 46.7799 19.7097L45.5985 20.3753C45.1159 19.4934 44.2507 18.8944 43.2689 18.7446C42.2871 18.5948 41.2721 18.911 40.5566 19.6099L36.6295 15.1337C37.0123 14.8342 37.3284 14.4348 37.5447 14.0022L40.9892 14.568C41.2555 15.766 42.4203 16.5481 43.6183 16.3318C44.8331 16.1321 45.6651 15.0172 45.5319 13.8025C45.3988 12.5878 44.3339 11.6726 43.1191 11.7392C41.8878 11.8057 40.9393 12.8041 40.9227 14.0355L37.7278 13.503C38.1771 11.9721 37.4449 10.3414 35.9972 9.65915C34.5495 8.97691 32.8356 9.47611 31.9537 10.8073C31.0718 12.1385 31.3047 13.919 32.5028 14.984L28.9418 18.4617C28.3927 17.8294 27.6106 17.43 26.7786 17.3635V14.934C27.9934 14.8009 28.9086 13.736 28.842 12.5046C28.7754 11.2732 27.777 10.3248 26.5457 10.3248C25.3143 10.3248 24.2993 11.2899 24.2327 12.5212C24.1662 13.7526 25.0647 14.8176 26.2961 14.9507V17.3635C25.1978 17.4467 24.2161 18.0956 23.7002 19.0608C23.1844 20.0425 23.201 21.2073 23.7502 22.1724L18.1591 24.735C17.9594 24.2524 17.6433 23.8364 17.2439 23.5036L19.4237 19.5766C19.6234 19.6265 19.8065 19.6598 20.0061 19.6598C21.1876 19.6598 22.1693 18.7779 22.3191 17.6131C22.4689 16.4483 21.7034 15.3667 20.5719 15.0838C19.4237 14.8009 18.2589 15.4166 17.8429 16.5148C17.4269 17.6131 17.9095 18.8444 18.9412 19.3936L16.8279 23.2208C15.5466 22.4553 13.9325 22.6716 12.8842 23.7366C11.8525 24.8016 11.6695 26.4157 12.4516 27.6803C13.2337 28.9449 14.7645 29.5107 16.1789 29.0614L18.6916 33.9702C18.0593 34.4361 17.61 35.135 17.4602 35.9005L15.6298 35.368C15.6797 35.1849 15.6964 34.9853 15.6964 34.8022C15.6964 33.6208 14.8145 32.639 13.6497 32.5059C12.4849 32.3728 11.4032 33.1216 11.1204 34.2697C10.8375 35.4179 11.4698 36.5827 12.5847 36.9821C13.6829 37.3814 14.9143 36.8989 15.4468 35.8505L17.3937 36.4163C17.3937 36.4662 17.3937 36.5161 17.3937 36.5661C17.3937 37.6643 17.9428 38.6793 18.8746 39.2617L17.6266 40.8925C16.7114 40.0771 15.3137 40.127 14.4484 41.0089C13.5831 41.8909 13.5498 43.272 14.3818 44.1872C15.2138 45.1024 16.5949 45.2022 17.5601 44.4202C18.5252 43.6381 18.6916 42.257 17.9761 41.2585L19.3239 39.4947C19.7233 39.6777 20.1725 39.7609 20.6218 39.7609C20.6884 39.7609 20.7549 39.7609 20.8215 39.7443L21.8199 45.3853C20.4887 45.7846 19.5569 46.9994 19.5069 48.3805C19.4737 49.7782 20.3389 51.0262 21.6535 51.4922C22.9681 51.9581 24.4324 51.5254 25.281 50.4106L29.9402 52.4906C29.907 52.657 29.8737 52.84 29.8737 53.0064C29.8737 54.1878 30.7556 55.1862 31.937 55.3194C33.1185 55.4525 34.2001 54.687 34.4663 53.5389C34.7326 52.3907 34.0836 51.2259 32.9687 50.8266C31.8538 50.4272 30.6225 50.943 30.1066 52.008L25.5639 49.9779C25.7636 49.6118 25.8967 49.2125 25.93 48.7965L31.8538 47.3488C32.3031 48.1808 33.1018 48.7632 34.0337 48.9629C34.9655 49.1459 35.9307 48.913 36.6628 48.3306L38.8759 50.2442C38.3601 51.3757 38.8094 52.7069 39.9076 53.2726C41.0059 53.855 42.3537 53.4723 42.986 52.4074C43.6183 51.3424 43.3188 49.9779 42.3038 49.279C41.2721 48.5802 39.891 48.8131 39.1422 49.7949L37.0289 47.9811C37.3451 47.6483 37.578 47.2323 37.7278 46.7997L46.5303 47.2323C46.547 48.5136 47.5787 49.5286 48.86 49.5286C50.1412 49.5286 51.1729 48.4803 51.1563 47.2157C51.1563 45.9677 50.1246 44.936 48.8433 44.936Z" fill="#FF473E"/>
</svg>

<svg xmlns="http://www.w3.org/2000/svg" width="64" height="65" fill="none" viewBox="0 0 64 65"><rect width="64" height="64" y=".304" fill="#fff" rx="32"/><rect width="63" height="63" x=".5" y=".804" stroke="#070B14" stroke-opacity=".15" rx="31.5"/><path fill="#FF473E" d="M48.843 44.936c-1.098 0-2.03.765-2.263 1.83l-8.736-.416q.05-.249.05-.499c0-.3-.05-.599-.133-.898l3.178-1.83a2.364 2.364 0 0 0 3.212.432 2.343 2.343 0 0 0 .599-3.178 2.36 2.36 0 0 0-3.145-.766 2.346 2.346 0 0 0-.932 3.095l-3.078 1.78a3.214 3.214 0 0 0-4.127-1.597 3.223 3.223 0 0 0-1.814 4.044l-5.724 1.38a3.18 3.18 0 0 0-.915-2.08l1.032-1.43a2.33 2.33 0 0 0 2.912-1.331 2.32 2.32 0 0 0-1.165-2.979 2.333 2.333 0 0 0-3.045.999 2.346 2.346 0 0 0 .832 3.095l-.949 1.314a3.27 3.27 0 0 0-2.346-.616l-.982-5.607a3.2 3.2 0 0 0 2.446-2.446 3.2 3.2 0 0 0-1.198-3.245 3.2 3.2 0 0 0-3.444-.283l-2.48-4.842a3.24 3.24 0 0 0 1.282-1.182l2.063.55c-.017.116-.033.216-.033.332 0 1.198.915 2.213 2.113 2.33a2.32 2.32 0 0 0 2.512-1.897 2.31 2.31 0 0 0-1.664-2.663 2.324 2.324 0 0 0-2.812 1.415l-1.947-.516a3.16 3.16 0 0 0 .15-1.997l5.741-2.646a3.23 3.23 0 0 0 4.393.616 3.195 3.195 0 0 0 .832-4.343l3.66-3.578c.45.283.966.466 1.482.5v1.58a2.319 2.319 0 0 0 .25 4.626 2.32 2.32 0 0 0 2.312-2.196 2.31 2.31 0 0 0-2.063-2.43v-1.58a3.2 3.2 0 0 0 1.298-.383l4.01 4.576a3.236 3.236 0 0 0 .15 4.093 3.22 3.22 0 0 0 4.06.616 3.23 3.23 0 0 0 1.381-3.86l1.248-.7a2.31 2.31 0 0 0 3.162.35 2.305 2.305 0 0 0 .532-3.128 2.305 2.305 0 0 0-3.095-.699 2.324 2.324 0 0 0-.865 3.062l-1.181.665a3.208 3.208 0 0 0-5.042-.765l-3.928-4.476c.383-.3.7-.7.916-1.132l3.444.566a2.29 2.29 0 0 0 2.63 1.764 2.304 2.304 0 0 0 1.913-2.53c-.133-1.214-1.198-2.13-2.413-2.063a2.315 2.315 0 0 0-2.196 2.297l-3.195-.533a3.24 3.24 0 0 0-1.73-3.844 3.21 3.21 0 0 0-4.044 1.148 3.214 3.214 0 0 0 .549 4.177l-3.561 3.478a3.22 3.22 0 0 0-2.163-1.099v-2.429a2.323 2.323 0 0 0 2.063-2.43 2.29 2.29 0 0 0-2.296-2.18 2.32 2.32 0 0 0-2.313 2.197 2.31 2.31 0 0 0 2.063 2.43v2.412a3.23 3.23 0 0 0-2.596 1.698 3.23 3.23 0 0 0 .05 3.111l-5.59 2.563a3.2 3.2 0 0 0-.916-1.231l2.18-3.927c.2.05.383.083.582.083a2.335 2.335 0 0 0 2.313-2.047c.15-1.165-.616-2.246-1.747-2.53a2.32 2.32 0 0 0-2.73 1.432 2.334 2.334 0 0 0 1.1 2.879l-2.114 3.827a3.204 3.204 0 0 0-3.944.516 3.22 3.22 0 0 0-.432 3.943 3.226 3.226 0 0 0 3.727 1.381l2.513 4.91a3.18 3.18 0 0 0-1.232 1.93l-1.83-.533c.05-.183.066-.383.066-.566a2.307 2.307 0 0 0-2.046-2.296 2.33 2.33 0 0 0-2.53 1.764 2.295 2.295 0 0 0 1.465 2.712c1.098.4 2.33-.083 2.862-1.132l1.947.566v.15a3.16 3.16 0 0 0 1.48 2.696l-1.247 1.63a2.304 2.304 0 0 0-3.179.117 2.303 2.303 0 0 0-.066 3.178 2.31 2.31 0 0 0 3.178.233 2.32 2.32 0 0 0 .416-3.162l1.348-1.763c.4.183.848.266 1.298.266.066 0 .133 0 .2-.017l.998 5.641a3.26 3.26 0 0 0-2.313 2.996 3.21 3.21 0 0 0 2.146 3.111 3.21 3.21 0 0 0 3.628-1.081l4.66 2.08a2.7 2.7 0 0 0-.067.515c0 1.182.882 2.18 2.063 2.313a2.32 2.32 0 0 0 2.53-1.78 2.33 2.33 0 0 0-1.498-2.712 2.317 2.317 0 0 0-2.862 1.181l-4.543-2.03c.2-.366.333-.766.366-1.181l5.924-1.448a3.23 3.23 0 0 0 2.18 1.614 3.23 3.23 0 0 0 2.629-.632l2.213 1.913a2.316 2.316 0 0 0 1.032 3.029c1.098.582 2.446.2 3.078-.866a2.34 2.34 0 0 0-.682-3.128 2.327 2.327 0 0 0-3.162.516L37.03 47.98c.316-.333.549-.749.699-1.181l8.802.432a2.32 2.32 0 0 0 2.33 2.297 2.294 2.294 0 0 0 2.296-2.313c0-1.248-1.031-2.28-2.313-2.28"/></svg>
